Komodo/apps/scalable/xterm.svg

<?xml version="1.0" encoding="UTF-8" standalone="no"?>
<!-- Created with Inkscape (http://www.inkscape.org/) -->

<svg
   xmlns:dc="http://purl.org/dc/elements/1.1/"
   xmlns:cc="http://creativecommons.org/ns#"
   xmlns:rdf="http://www.w3.org/1999/02/22-rdf-syntax-ns#"
   xmlns:svg="http://www.w3.org/2000/svg"
   xmlns="http://www.w3.org/2000/svg"
   xmlns:xlink="http://www.w3.org/1999/xlink"
   xmlns:sodipodi="http://sodipodi.sourceforge.net/DTD/sodipodi-0.dtd"
   xmlns:inkscape="http://www.inkscape.org/namespaces/inkscape"
   width="96"
   height="96"
   id="svg11037"
   version="1.1"
   inkscape:version="0.48.3.1 r9886"
   sodipodi:docname="xterm.svg">
  <defs
     id="defs11039">
    <linearGradient
       y2="1046.1001"
       x2="47.999954"
       y1="962.62189"
       x1="47.999954"
       gradientTransform="matrix(1.15,0,0,1.15,-7.1999462,-150.65291)"
       gradientUnits="userSpaceOnUse"
       id="linearGradient3886"
       xlink:href="#linearGradient3795"
       inkscape:collect="always" />
    <linearGradient
       id="linearGradient3795">
      <stop
         style="stop-color:#13a6fd;stop-opacity:1;"
         offset="0"
         id="stop3797" />
      <stop
         style="stop-color:#2975b6;stop-opacity:1;"
         offset="1"
         id="stop3799" />
    </linearGradient>
    <linearGradient
       y2="1046.1001"
       x2="47.999954"
       y1="962.62189"
       x1="47.999954"
       gradientTransform="matrix(1.15,0,0,1.15,-7.1999462,-150.65292)"
       gradientUnits="userSpaceOnUse"
       id="linearGradient11642"
       xlink:href="#linearGradient3795"
       inkscape:collect="always" />
    <radialGradient
       cx="47.098362"
       cy="78.286942"
       r="38.957481"
       fx="47.098362"
       fy="78.286942"
       id="radialGradient3205"
       xlink:href="#linearGradient3224"
       gradientUnits="userSpaceOnUse"
       gradientTransform="matrix(1.3830053,-1.0350102e-8,0,1.3123934,-18.038924,-24.218731)" />
    <linearGradient
       id="linearGradient3224">
      <stop
         id="stop3226"
         style="stop-color:#42394b;stop-opacity:1"
         offset="0" />
      <stop
         id="stop3228"
         style="stop-color:#000000;stop-opacity:1"
         offset="1" />
    </linearGradient>
    <clipPath
       clipPathUnits="userSpaceOnUse"
       id="clipPath3036">
      <rect
         x="8.1408806"
         y="8.8493147"
         width="77.921623"
         height="77.921623"
         style="fill:url(#linearGradient3040);fill-opacity:1"
         id="rect3038"
         rx="21.174353"
         ry="21.174353" />
    </clipPath>
    <linearGradient
       inkscape:collect="always"
       xlink:href="#linearGradient3795"
       id="linearGradient3040"
       gradientUnits="userSpaceOnUse"
       gradientTransform="matrix(0.97402025,0,0,0.97402025,0.34876421,-930.45779)"
       x1="47.999954"
       y1="962.62189"
       x2="47.999954"
       y2="1046.1001" />
    <clipPath
       clipPathUnits="userSpaceOnUse"
       id="clipPath3009">
      <path
         id="path3011"
         d="m -2,956.36218 -96,0 0,33.5624 96,25.68742 0,-59.24982 z"
         style="opacity:0.15;fill:#ffffff;fill-opacity:1;stroke:none"
         inkscape:connector-curvature="0" />
    </clipPath>
  </defs>
  <sodipodi:namedview
     id="base"
     pagecolor="#ffffff"
     bordercolor="#666666"
     borderopacity="1.0"
     inkscape:pageopacity="0.0"
     inkscape:pageshadow="2"
     inkscape:zoom="3.959798"
     inkscape:cx="37.957448"
     inkscape:cy="59.964634"
     inkscape:document-units="px"
     inkscape:current-layer="layer1"
     showgrid="false"
     inkscape:window-width="1280"
     inkscape:window-height="750"
     inkscape:window-x="0"
     inkscape:window-y="22"
     inkscape:window-maximized="1"
     showguides="true"
     inkscape:guide-bbox="true">
    <sodipodi:guide
       orientation="0,1"
       position="-24.748737,0"
       id="guide11064" />
    <sodipodi:guide
       orientation="0,1"
       position="-23.233509,96"
       id="guide11066" />
    <sodipodi:guide
       orientation="1,0"
       position="0,54.800776"
       id="guide11068" />
    <sodipodi:guide
       orientation="1,0"
       position="96,51.012704"
       id="guide11070" />
    <sodipodi:guide
       orientation="0,1"
       position="-18.94036,48"
       id="guide11072" />
    <sodipodi:guide
       orientation="1,0"
       position="48,79.296975"
       id="guide11074" />
    <sodipodi:guide
       orientation="1,0"
       position="2,75.508903"
       id="guide11076" />
    <sodipodi:guide
       orientation="0,1"
       position="-77.27667,2"
       id="guide11078" />
    <sodipodi:guide
       orientation="1,0"
       position="94,77.781746"
       id="guide11080" />
    <sodipodi:guide
       orientation="0,1"
       position="-65.912454,94"
       id="guide11082" />
  </sodipodi:namedview>
  <metadata
     id="metadata11042">
    <rdf:RDF>
      <cc:Work
         rdf:about="">
        <dc:format>image/svg+xml</dc:format>
        <dc:type
           rdf:resource="http://purl.org/dc/dcmitype/StillImage" />
        <dc:title />
      </cc:Work>
    </rdf:RDF>
  </metadata>
  <g
     inkscape:label="Layer 1"
     inkscape:groupmode="layer"
     id="layer1"
     transform="translate(0,-956.36218)">
    <g
       transform="matrix(1.1806736,0,0,1.1806736,-7.6117229,947.91403)"
       id="g3050"
       clip-path="url(#clipPath3036)">
      <path
         inkscape:connector-curvature="0"
         style="opacity:0.2;fill:#ff00ff;stroke:none"
         id="path3927"
         d="m 24,17.5 a 1.4854276,1.4854276 0 0 0 -1.25,2.3125 L 41.21875,48.5 22.75,76.1875 A 1.4854276,1.4854276 0 0 0 24,78.5 l 4,0 a 1.4854276,1.4854276 0 0 0 1.21875,-0.6875 l 15.6875,-23.40625 14.875,23.40625 a 1.4854276,1.4854276 0 0 0 1.25,0.6875 l 12,0 a 1.4854276,1.4854276 0 0 0 1.25,-2.3125 L 55.8125,47.5 74.28125,19.8125 a 1.4854276,1.4854276 0 0 0 -1.25,-2.3125 l -4,0 A 1.4854276,1.4854276 0 0 0 67.8125,18.1875 L 52.125,41.59375 37.25,18.1875 A 1.4854276,1.4854276 0 0 0 36,17.5 l -12,0 z" />
      <rect
         style="fill:url(#radialGradient3205);fill-opacity:1;stroke:none"
         id="rect3461"
         y="8.2544327"
         x="8.1408806"
         ry="6.1732869"
         rx="5.8527675"
         height="78.516495"
         width="77.914963" />
      <path
         style="opacity:0.2;fill:#ffffff;stroke:none"
         id="path3889"
         inkscape:connector-curvature="0"
         d="M 24,19 43,48.508772 24,77 28,77 51.03125,42.626096 36,19 24,19 z M 69.03125,19 46,53.373904 61.03125,77 l 12,0 -19,-29.508772 19,-28.491228 -4,0 z" />
      <path
         style="opacity:0.07999998;fill:#d9c6ed;fill-opacity:1;stroke:none"
         id="rect3256"
         inkscape:connector-curvature="0"
         d="m 14,8.25 c -3.242433,0 -5.84375,2.7675 -5.84375,6.1875 l 0,49.0625 C 26.980304,49.641102 53.967914,39.706343 86.0625,41.71875 l 0,-27.28125 c 0,-3.420001 -2.63257,-6.1875 -5.875,-6.1875 L 14,8.25 z" />
      <path
         inkscape:connector-curvature="0"
         style="font-size:48px;font-style:normal;font-variant:normal;font-weight:bold;font-stretch:normal;text-align:start;line-height:125%;writing-mode:lr-tb;text-anchor:start;opacity:0.1;fill:#000000;fill-opacity:1;stroke:none;display:inline;font-family:MgOpen Canonica;-inkscape-font-specification:MgOpen Canonica Bold"
         id="path3883"
         d="M 23.8125,24.0625 A 0.94073904,0.94073904 0 0 0 23.0625,25 l 0,4 a 0.94073904,0.94073904 0 0 0 0.59375,0.875 L 29.375,32.09375 23.65625,34.25 a 0.94073904,0.94073904 0 0 0 -0.59375,0.875 l 0,3.875 a 0.94073904,0.94073904 0 0 0 1.28125,0.875 l 11.9375,-4.90625 a 0.94073904,0.94073904 0 0 0 0.59375,-0.875 L 36.9375,30.25 A 0.94073904,0.94073904 0 0 0 36.375,29.375 l -12,-5.25 a 0.94073904,0.94073904 0 0 0 -0.5625,-0.0625 z m 12.09375,14 A 0.94073904,0.94073904 0 0 0 35.0625,39 l 0,4 A 0.94073904,0.94073904 0 0 0 36,43.9375 l 12,0 A 0.94073904,0.94073904 0 0 0 48.9375,43 l 0,-4 A 0.94073904,0.94073904 0 0 0 48,38.0625 l -12,0 a 0.94073904,0.94073904 0 0 0 -0.09375,0 z" />
      <path
         style="font-size:48px;font-style:normal;font-variant:normal;font-weight:bold;font-stretch:normal;text-align:start;line-height:125%;writing-mode:lr-tb;text-anchor:start;opacity:0.2;fill:#000000;fill-opacity:1;stroke:none;display:inline;font-family:MgOpen Canonica;-inkscape-font-specification:MgOpen Canonica Bold"
         id="path3874"
         inkscape:connector-curvature="0"
         d="m 24,25 0,4 8,3.09375 L 24,35.125 24,39 35.9375,34.09375 36,30.25 24,25 z m 12,14 0,4 12,0 0,-4 -12,0 z" />
      <path
         style="font-size:48px;font-style:normal;font-variant:normal;font-weight:bold;font-stretch:normal;text-align:start;line-height:125%;writing-mode:lr-tb;text-anchor:start;fill:#ffffff;fill-opacity:1;stroke:none;display:inline;font-family:MgOpen Canonica;-inkscape-font-specification:MgOpen Canonica Bold"
         id="path3213"
         inkscape:connector-curvature="0"
         d="m 24,24 0,4.002171 8.011647,3.093117 L 24,34.127758 24,38 35.946726,33.083525 36,29.24142 24,24 z" />
      <path
         style="font-size:48px;font-style:normal;font-variant:normal;font-weight:bold;font-stretch:normal;text-align:start;line-height:125%;writing-mode:lr-tb;text-anchor:start;fill:#ffffff;fill-opacity:1;stroke:none;display:inline;font-family:MgOpen Canonica;-inkscape-font-specification:MgOpen Canonica Bold"
         id="path3557"
         inkscape:connector-curvature="0"
         d="m 36,38 0,4 12,0 0,-4 -12,0 z" />
      <path
         style="font-size:medium;font-style:normal;font-variant:normal;font-weight:normal;font-stretch:normal;text-indent:0;text-align:start;text-decoration:none;line-height:normal;letter-spacing:normal;word-spacing:normal;text-transform:none;direction:ltr;block-progression:tb;writing-mode:lr-tb;text-anchor:start;opacity:0.15;color:#000000;fill:#000000;fill-opacity:1;stroke:none;stroke-width:4;marker:none;visibility:visible;display:inline;overflow:visible;enable-background:accumulate;font-family:Abandoned Bitplane;-inkscape-font-specification:Abandoned Bitplane"
         id="rect3222-3"
         inkscape:connector-curvature="0"
         d="m 19,13 c -3.289406,0 -6,2.710594 -6,6 l 0,58 c 0,3.289406 2.710594,6 6,6 l 58,0 c 3.289406,0 6,-2.710594 6,-6 l 0,-58 c 0,-3.289406 -2.710594,-6 -6,-6 l -58,0 z m 0,4 58,0 c 1.142594,0 2,0.857406 2,2 l 0,58 c 0,1.142594 -0.857406,2 -2,2 l -58,0 c -1.142594,0 -2,-0.857406 -2,-2 l 0,-58 c 0,-1.142594 0.857406,-2 2,-2 z" />
      <path
         style="opacity:0.3;color:#000000;fill:#000000;fill-opacity:1;fill-rule:nonzero;stroke:none;stroke-width:1;marker:none;visibility:visible;display:inline;overflow:visible;enable-background:accumulate"
         id="rect3981"
         inkscape:connector-curvature="0"
         d="m 17,14 c -1.662,0 -3,1.338 -3,3 l 0,62 c 0,1.662 1.338,3 3,3 l 62,0 c 1.662,0 3,-1.338 3,-3 l 0,-62 c 0,-1.662 -1.338,-3 -3,-3 l -62,0 z m 0,1.9375 62,0 c 0.618163,0 1.0625,0.444337 1.0625,1.0625 l 0,62 c 0,0.618163 -0.444337,1.0625 -1.0625,1.0625 l -62,0 c -0.618163,0 -1.0625,-0.444337 -1.0625,-1.0625 l 0,-62 c 0,-0.618163 0.444337,-1.0625 1.0625,-1.0625 z" />
      <path
         style="opacity:0.6;color:#000000;fill:#000000;fill-opacity:1;fill-rule:nonzero;stroke:none;stroke-width:1;marker:none;visibility:visible;display:inline;overflow:visible;enable-background:accumulate"
         id="rect3977"
         inkscape:connector-curvature="0"
         d="m 17,14 c -1.662,0 -3,1.338 -3,3 l 0,62 c 0,1.662 1.338,3 3,3 l 62,0 c 1.662,0 3,-1.338 3,-3 l 0,-62 c 0,-1.662 -1.338,-3 -3,-3 l -62,0 z m 0,0.96875 62,0 c 1.140081,0 2.03125,0.891169 2.03125,2.03125 l 0,62 c 0,1.140081 -0.891169,2.03125 -2.03125,2.03125 l -62,0 c -1.140081,0 -2.03125,-0.891169 -2.03125,-2.03125 l 0,-62 c 0,-1.140081 0.891169,-2.03125 2.03125,-2.03125 z" />
    </g>
    <rect
       ry="25"
       rx="25"
       id="rect3003"
       style="opacity:0.15;fill:#ffffff;fill-opacity:1"
       height="92"
       width="92"
       y="958.36218"
       x="-96"
       clip-path="url(#clipPath3009)"
       transform="translate(98,3.8281269e-7)" />
  </g>
</svg>

<?xml version="1.0" encoding="UTF-8" standalone="no"?>
<!-- Created with Inkscape (http://www.inkscape.org/) -->
<svg id="svg11037" xmlns:rdf="http://www.w3.org/1999/02/22-rdf-syntax-ns#" xmlns="http://www.w3.org/2000/svg" height="96" width="96" version="1.1" xmlns:cc="http://creativecommons.org/ns#" xmlns:xlink="http://www.w3.org/1999/xlink" xmlns:dc="http://purl.org/dc/elements/1.1/">
 <defs id="defs11039">
  <radialGradient id="radialGradient3205" gradientUnits="userSpaceOnUse" cy="78.287" cx="47.098" gradientTransform="matrix(1.383 -1.035e-8 0 1.3124 -18.039 -24.219)" r="38.957">
   <stop id="stop3226" style="stop-color:#42394b" offset="0"/>
   <stop id="stop3228" offset="1"/>
  </radialGradient>
  <clipPath id="clipPath3036" clipPathUnits="userSpaceOnUse">
   <rect id="rect3038" style="fill:url(#linearGradient3040)" rx="21.174" ry="21.174" height="77.922" width="77.922" y="8.8493" x="8.1409"/>
  </clipPath>
  <linearGradient id="linearGradient3040" y2="1046.1" gradientUnits="userSpaceOnUse" x2="48" gradientTransform="matrix(.97402 0 0 .97402 .34876 -930.46)" y1="962.62" x1="48">
   <stop id="stop3797" style="stop-color:#13a6fd" offset="0"/>
   <stop id="stop3799" style="stop-color:#2975b6" offset="1"/>
  </linearGradient>
  <clipPath id="clipPath3009" clipPathUnits="userSpaceOnUse">
   <path id="path3011" style="opacity:.15;fill:#fff" d="m-2 956.36h-96v33.562l96 25.687v-59.25z"/>
  </clipPath>
 </defs>
 <metadata id="metadata11042">
  <rdf:RDF>
   <cc:Work rdf:about="">
    <dc:format>image/svg+xml</dc:format>
    <dc:type rdf:resource="http://purl.org/dc/dcmitype/StillImage"/>
    <dc:title/>
   </cc:Work>
  </rdf:RDF>
 </metadata>
 <g id="layer1" transform="translate(0 -956.36)">
  <g id="g3050" clip-path="url(#clipPath3036)" transform="matrix(1.1807 0 0 1.1807 -7.6117 947.91)">
   <path id="path3927" d="m24 17.5a1.4854 1.4854 0 0 0 -1.25 2.3125l18.469 28.688-18.469 27.688a1.4854 1.4854 0 0 0 1.25 2.312h4a1.4854 1.4854 0 0 0 1.2188 -0.6875l15.688-23.406 14.875 23.406a1.4854 1.4854 0 0 0 1.25 0.6875h12a1.4854 1.4854 0 0 0 1.25 -2.3125l-18.47-28.688 18.469-27.688a1.4854 1.4854 0 0 0 -1.25 -2.3125h-4a1.4854 1.4854 0 0 0 -1.219 0.688l-15.687 23.406-14.875-23.406a1.4854 1.4854 0 0 0 -1.25 -0.688h-12z" style="opacity:.2;fill:#f0f"/>
   <rect id="rect3461" style="fill:url(#radialGradient3205)" rx="5.8528" ry="6.1733" height="78.516" width="77.915" y="8.2544" x="8.1409"/>
   <path id="path3889" d="m24 19 19 29.509-19 28.491h4l23.031-34.374-15.031-23.626h-12zm45.031 0-23.031 34.374 15.031 23.626h12l-19-29.509 19-28.491h-4z" style="opacity:.2;fill:#fff"/>
   <path id="rect3256" d="m14 8.25c-3.2424 0-5.8438 2.7675-5.8438 6.1875v49.062c18.824-13.859 45.812-23.794 77.906-21.781v-27.281c0-3.42-2.6326-6.1875-5.875-6.1875l-66.187-0.0005z" style="opacity:0.08;fill:#d9c6ed"/>
   <path id="path3883" d="m23.812 24.062a0.94074 0.94074 0 0 0 -0.75 0.938v4a0.94074 0.94074 0 0 0 0.59375 0.875l5.719 2.219-5.719 2.156a0.94074 0.94074 0 0 0 -0.59375 0.875v3.875a0.94074 0.94074 0 0 0 1.2812 0.875l11.938-4.9062a0.94074 0.94074 0 0 0 0.59375 -0.875l0.063-3.844a0.94074 0.94074 0 0 0 -0.563 -0.875l-12-5.25a0.94074 0.94074 0 0 0 -0.5625 -0.0625zm12.094 14a0.94074 0.94074 0 0 0 -0.844 0.938v4a0.94074 0.94074 0 0 0 0.938 0.938h12a0.94074 0.94074 0 0 0 0.938 -0.938v-4a0.94074 0.94074 0 0 0 -0.938 -0.938h-12a0.94074 0.94074 0 0 0 -0.09375 0z" style="opacity:.1"/>
   <path id="path3874" d="m24 25v4l8 3.0938-8 3.031v3.875l11.938-4.906 0.062-3.844-12-5.25zm12 14v4h12v-4h-12z" style="opacity:.2"/>
   <path id="path3213" d="m24 24v4.0022l8.0116 3.0931-8.012 3.033v3.872l11.947-4.916 0.053-3.843-12-5.241z" style="fill:#fff"/>
   <path id="path3557" d="m36 38v4h12v-4h-12z" style="fill:#fff"/>
   <path id="rect3222-3" d="m19 13c-3.2894 0-6 2.7106-6 6v58c0 3.2894 2.7106 6 6 6h58c3.2894 0 6-2.7106 6-6v-58c0-3.2894-2.7106-6-6-6h-58zm0 4h58c1.1426 0 2 0.85741 2 2v58c0 1.1426-0.85741 2-2 2h-58c-1.1426 0-2-0.85741-2-2v-58c0-1.1426 0.85741-2 2-2z" style="opacity:.15;block-progression:tb;text-indent:0;color:#000000;text-transform:none"/>
   <path id="rect3981" d="m17 14c-1.662 0-3 1.338-3 3v62c0 1.662 1.338 3 3 3h62c1.662 0 3-1.338 3-3v-62c0-1.662-1.338-3-3-3h-62zm0 1.9375h62c0.61816 0 1.0625 0.44434 1.0625 1.0625v62c0 0.61816-0.44434 1.0625-1.0625 1.0625h-62c-0.61816 0-1.0625-0.44434-1.0625-1.0625v-62c0-0.61816 0.44434-1.0625 1.0625-1.0625z" style="opacity:.3;color:#000000"/>
   <path id="rect3977" d="m17 14c-1.662 0-3 1.338-3 3v62c0 1.662 1.338 3 3 3h62c1.662 0 3-1.338 3-3v-62c0-1.662-1.338-3-3-3h-62zm0 0.96875h62c1.1401 0 2.0312 0.89117 2.0312 2.0312v62c0 1.1401-0.89117 2.0312-2.0312 2.0312h-62c-1.1401 0-2.0312-0.89117-2.0312-2.0312v-62c0-1.1401 0.89117-2.0312 2.0312-2.0312z" style="opacity:.6;color:#000000"/>
  </g>
  <rect id="rect3003" style="opacity:.15;fill:#fff" transform="translate(98 3.8281e-7)" clip-path="url(#clipPath3009)" rx="25" ry="25" height="92" width="92" y="958.36" x="-96"/>
 </g>
</svg>
